X: 55
M: C
L: 1/8
K: D
d2 a2 (f>ga) d | f2 (a>b) a2 z d | (g>ab) g
f>ga f | (gfe) d e2 d f | D3 F
(A>Bd) A | B2 (d>e) d2 :: (d>e) | (fd) (eB)
(dA) (BF) | E2 e2 e2 (fa) | (ba) (fb) (ad) (bd) |
f2 (a>b) a2 (gf) | (g>ab) g (f>ga) f | (gfe) d
e2 (d/e/) f | D3 F | (A>Bd) A |

